X:1704
T:Sönderhoning 
T:(variation 1)
R:Sönderhoning
S:efter Frits Brinch
O:Fanö, Danmark
B:Bandinspelning, juli 1969
Z:ABC-transkribering av Åke Persson 2009-11-13
N:Variant av "Alt så trekker vi tröjen av" som danspubliken sjunger i bakgrunden
M:2/4
L:1/8
Q:1/4=100
K:D
Ad d/d/d | df f/f/f | {d}f/f/f/g/ aa | gg f2 | 
ff d/d/d | dd/f/ f/f/f | f/f/f/f/ aa | gg f2 |] 
af/f/ ff | gb e2 | ee/d/ cA/c/ | ee e2 |
aa/g/ ff | gb e2 | ee/d/ cd | e/c/A/c/ d2|]
(:musicend:)
Frits varierade figurena mycket vid olika omtagningar, som en del av hans karaktäristiska spelstil. För att ytterligare bekanta sig med hans sätt att variera kommer här ytterligare en notbild med sådana variationer inlagda. 
(:music:)
